X:1
T:If Ye Be Risen
T:Christopher Tye arr. and abridged for satb BMarble
T:If Ye Be Risen
T:Copyright © 2014 by CPDL.  This edition can be fully distributed, duplicated, performed, and recorded 
T:Copyright © 2014 by CPDL.  This edition can be fully distributed, duplicated, performed, and recorded 
T:Copyright © 2014 by CPDL.  This edition can be fully distributed, duplicated, performed, and recorded 
T:Copyright © 2014 by CPDL.  This edition can be fully distributed, duplicated, performed, and recorded 
T:Copyright © 2014 by CPDL.  This edition can be fully distributed, duplicated, performed, and recorded 
T:Copyright © 2014 by CPDL.  This edition can be fully distributed, duplicated, performed, and recorded 
T:Copyright © 2014 by CPDL.  This edition can be fully distributed, duplicated, performed, and recorded 
T:Copyright © 2014 by CPDL.  This edition can be fully distributed, duplicated, performed, and recorded 
T:Copyright © 2014 by CPDL.  This edition can be fully distributed, duplicated, performed, and recorded 
T:Copyright © 2014 by CPDL.  This edition can be fully distributed, duplicated, performed, and recorded 
C:Christopher Tye
C:arr. and abridged for satb BMarble
Z:Copyright © 2014 by CPDL.  This edition can be fully distributed, duplicated, performed, and recorded
%%score [ 1 2 3 4 ]
L:1/8
Q:1/4=120
M:4/2
K:A
V:1 treble nm="Soprano" snm="S."
V:2 treble nm="Alto" snm="A."
V:3 treble-8 transpose=-12 nm="Tenor" snm="T."
V:4 bass nm="Bass" snm="B."
V:1
 z8 C4 C4- | C2 ^D2 E2 E2 F4 A4- | A4 F4 A8- | A4 (G2 F2 E6 F2) | G8 z8 | C4 C6 ^D2 E2 F2 | %6
w: If ye|_ be ri- sen a- gain|_ with Christ,|_ with _ _ _|Christ,|if ye be ri- sen|
 G4 A6 (G2 F4-) | (F4 ^E4) F8 | z8 C6 ^D2 | E4 F4 G4 A4 | B8 z4 B4 | A12 A4 | G12 G4 | F8 z8 | %14
w: a- gain with _|_ _ Christ,|seek the|things which are a-|bove, the|things which|are a-|bove,|
 z8 C6 ^D2 | E4 F4 G4 A4 | B8 A4 G4- | G2 (C2 F4) ^E8 | z16 | z8 z4 G4 | %20
w: seek the|things which are a-|bove, which are|_ a- * bove,||where|
"^rit." A4 G2 F2 =E2 ^D2 (E2 F2 | G4) F8 ^E4 |[Q:1/2=96] F16 | z16 | z16 | z8 z4 F4 | F4 F4 A8 | %27
w: Christ sit- teth on the right _|_ hand of|God.|||Set|your af- fec-|
 E4 E4 G8- | G4 G4 F4 F4 | A6 A2 G4 C4 | (^D2 ^E2 F8) E4 | F4 z4 z4 F4 | (G2 A2) B4 A4 G4 | %33
w: tion on heav'n-|* ly things, on|heav'n- ly things, on|heav'n- * * ly|things, on|heav'n- * ly things, on|
 G4 F4 ^E8- | E8 z4 C4 | C4 C4 F4 F4 | ^E8 F4 F4 | G16 | z4 E4 E4 E4 | A4 A4 G8 | A6 (G2 F8) | %41
w: heav'n- ly things,|_ and|not on things which|are on the|earth,|and not on|things which are|on the _|
 ^E8 z8 | z8 z4 B,4 | B,4 B,4 F8 | E4 A4 G4 F4 | ^E4 G6 F2- F4- | (F4 ^E4) F8 | z8 z4 F4 | %48
w: earth,|and|not on things|which are on the|earth, on the _|_ _ earth,|and|
 F4 F4 B4 B4 |"^rit." ^A4 F8 F4 | F16- | F16 |] %52
w: not on things which|are on the|earth.|_|
V:2
 z16 | z16 | F,4 F,6 G,2 A,2 B,2 | C4 D2 D2 C8- | C4 C4 B,4 (C4 | A,8) G,4 G,4- | %6
w: ||If ye be ri- sen|a- gain with Christ,|_ a- gain with|_ Christ, a-|
 G,4 C6 (B,2 =D2 B,2) | C16- | C8 z8 | z16 | z8 F,6 G,2 | A,4 B,4 C4 ^D4 | E8 B,6 C2 | %13
w: * gain with _ _|Christ,|_||seek the|things which are a-|bove, seek the|
 =D4 E4 F4 G4 | A8 z8 | G,6 A,2 B,4 C4 | ^D4 ^E4 F4 z4 | z8 z4 G4 | A4 G2 F2 E2 ^D2 (E2 F2 | %19
w: things which are a-|bove,|seek the things which|are a- bove,|where|Christ sit- teth on the right _|
 G4) F8 ^E4 | F4 C12 | =D4 B,4 C8 | C8 z4 F4 | F4 F4 =A8 | E4 E4 G8- | G4 G4 F4 B,4 | %26
w: _ hand of|God, the|right hand of|God. Set|your af- fec-|tion on heav'n-|* ly things, on|
 A,6 F,2 C4 C4 | C4 C4 E8 | B,4 B,4 D6 D2 | C4 F4 F4 ^E4 | F4 F4 (G2 A2) B4 | A4 A4 G4 F4 | %32
w: heav'n- ly things, set|your af- fec-|tion on heav'n- ly|things, on heav'n- ly|things, on heav'n- * ly|things, on heav'n- ly|
 E4 B,4 (C2 ^D2) (E4 | =D4 C4) C8- | C8 z8 | z4 F,4 F,4 F,4 | C4 C6 B,2 C2 ^D2 | E16 | z8 z4 A,4 | %39
w: things, on heav'n- * ly|_ _ things,|_|and not on|things which are on the|earth,|and|
 A,4 A,4 E6 E2 | D4 C8 B,4 | C8 z8 | z4 F4 F4 F4 | B4 B4 A4 A2 A2 | G4 C4 E4 B,2 B,2 | C8 z8 | %46
w: not on things which|are on the|earth,|and not on|things which are on the|earth, which are on the|earth,|
 z4 C4 C4 C4 | F6 E2 =D4 D2 D2 | C8 F4 F4 | F4 C4 D4 B,2 B,2 | ^A,4 D8 (C2 B,2) | C16 |] %52
w: and not on|things which are on the|earth, on the|earth, which are on the|earth, on the *|earth.|
V:3
 F4 F6 G2 A2 B2 | c8 d4 d4 | c12 F4 | A4 B4 G8 | z8 z4 F4 | F2 G2 A2 B2 c8 | B4 (A4 F8 | G8) F8 | %8
w: If ye be ri- sen|a- gain with|Christ, a-|gain with Christ,|if|ye be ri- sen a-|gain with _|_ Christ,|
 F6 G2 =A4 B4 | c4 ^d4 e4 c4 | =d12 (d4 | c16) | B8 z8 | z16 | F6 G2 A4 B4 | c4 ^d4 e4 c4 | %16
w: seek the things which|are a- bove, which|are a-||bove,||seek the things which|are a- bove, which|
 c4 B4 c4 c4 | c4 B4 c8- | c8 z4 c4 | e4 ^d2 c2 B4 B4 | c4 B2 A2 G2 F2 (G2 A2 | B2 A2) G2 (F2 G8) | %22
w: are a- bove, which|are a- bove,|* where|Christ sit- teth on the|right hand of God, the right _|_ _ hand of _|
 ^A16 | z8 z4 c4 | c4 c4 e8 | B4 B4 d6 d2 | c4 F4 F4 F4 | A8 E4 E4- | E2 (F2 G2 A2 B6) B2 | %29
w: God.|Set|your af- fec-|tion on heav'n- ly|things, set your af-|fec- tion on|_ heav'n- * * * ly|
 A4 F4 c6 c2 | B4 A4 G6 G2 | F4 =e4 =d4 c4 | B8 z4 E4 | (F2 G2) A4 G4 G4 | G4 G4 c6 B2 | A4 A8 F4 | %36
w: things, on heav'n- ly|things, on heav'n- ly|things, on heav'n- ly|things, on|heav'n- * ly things, and|not on things which|are on the|
 G8 A4 A4 | B4 B4 B4 B4 | e6 d2 c8- | c4 A4 B4 c4 | z4 E4 F8 | G4 c4 c4 c4 | f6 e2 ^d4 d4- | %43
w: earth, on the|earth, and not on|things which are|_ on the earth,|on the|earth, and not on|things which are on|
 d4 B4 c4 c4- | c4 A4 B4 F4 | G16- | G8 z4 F4 | F4 F4 B4 B4 | ^A8 d4 d4 | c4 ^A4 B4 d4- | %50
w: _ the earth, which|_ are on the|earth,|_ and|not on things which|are on the|earth, which are on|
 (d2 c2 B8) (^A2 G2) | ^A16 |] %52
w: _ _ _ the _|earth.|
V:4
 z16 | z16 | z16 | z8 C,4 C,4- | C,2 ^D,2 E,2 F,2 G,4 A,4- | A,2 (G,2 F,4) E,4 C,4 | %6
w: |||If ye|_ be ri- sen a- gain|with _ _ Christ, a-|
 E,4 (F,4 =D,8 | C,8) F,8- | F,16 | z16 | B,,6 C,2 D,4 E,4 | F,4 G,4 A,8 | E,6 F,2 G,4 A,4 | %13
w: gain with _|_ Christ,|_||seek the things which|are a- bove,|seek the things which|
 B,4 C4 D8 | C4 F,8 F,4 | C,4 F,4 E,4 A,4 | G,4 G,4 F,6 (=E,2 | C,4 D,4) C,8 | z4 F,4 A,4 G,2 F,2 | %19
w: are a- bove,|the things which|are a- bove, the|things which are a-|* * bove,|where Christ sit- teth|
 E,2 ^D,2 (E,2 F,2 G,8) | F,4 F,4 C,8 | (B,,4 D,4) C,8 | F,16 | z4 F,4 F,4 F,4 | A,8 E,4 E,4- | %25
w: on the right _ _|hand, the right|hand _ of|God.|Set your af-|fec- tion on|
 E,2 (F,2 G,2 A,2 B,4) B,4 | F,8 z8 | z4 C,4 C,4 C,4 | E,8 B,,2 (C,2 D,2 E,2) | F,6 F,2 C,8 | %30
w: _ heav'n- * * * ly|things,|set your af-|fec- tion on _ _|heav'n- ly things,|
 z8 z4 G,4 | (A,2 B,2) C4 B,4 A,4 | G,6 G,2 F,4 C,4 | B,,4 A,,4 C,8 | z4 C,4 C,4 C,4 | %35
w: on|heav'n- * ly things, on|heav'n- ly things, on|heav'n- ly things,|and not on|
 F,6 E,2 D,4 D,2 D,2 | C,8 F,4 F,4 | E,8 z4 E,4 | E,4 E,4 A,6 G,2 | F,8 E,4 C,4 | %40
w: things which are on the|earth, on the|earth, and|not on things which|are on the|
 F,4 C,4 D,4 D,2 D,2 | C,8 z4 F,4 | F,4 F,4 B,6 A,2 | G,4 G,2 G,2 F,8 | C,4 F,4 E,4 =D,4 | %45
w: earth, which are on the|earth, and|not on things which|are on the earth,|which are on the|
 C,4 =E,6 (D,2 C,2 B,,2) | C,4 C,4 F,8 | z4 B,,4 B,,4 B,,4 | F,6 F,2 D,4 B,,2 B,,2 | F,8 B,4 B,4 | %50
w: earth, which are _ _|on the earth,|and not on|things which are on the|earth, which are|
 F,4 B,,4 F,8- | F,16 |] %52
w: on the earth.|_|

